img/vk.svg

<svg fill="none" height="30" viewBox="0 0 30 30" width="30" xmlns="http://www.w3.org/2000/svg"><g clip-rule="evenodd" fill-rule="evenodd"><path d="m15 30c8.2843 0 15-6.7157 15-15 0-8.28427-6.7157-15-15-15-8.28427 0-15 6.71573-15 15 0 8.2843 6.71573 15 15 15z" fill="#096b61"/><path d="m14.7854 20.5304h1.1954s.3611-.0404.5456-.2419c.1697-.1853.1643-.5329.1643-.5329s-.0234-1.6278.7209-1.8675c.7341-.2363 1.6765 1.5732 2.6753 2.269.7553.5264 1.3293.4112 1.3293.4112l2.6709-.0379s1.3971-.0875.7346-1.2023c-.0542-.091-.3859-.8246-1.9859-2.3318-1.6749-1.5774-1.4504-1.3222.567-4.0509 1.2285-1.6617 1.7196-2.6762 1.5662-3.11064-.1462-.41396-1.0499-.30461-1.0499-.30461l-3.0073.01887s-.2231-.0308-.3883.06954c-.1616.09813-.2654.32741-.2654.32741s-.4761 1.28583-1.1107 2.37953c-1.3391 2.3075-1.8746 2.4296-2.0935 2.2861-.5092-.334-.382-1.3414-.382-2.0573 0-2.2363.3343-3.16873-.6508-3.41008-.3269-.08005-.5677-.13301-1.4037-.14166-1.0731-.01108-1.9811.00336-2.4954.25901-.3421.17003-.6061.54882-.4452.57062.1988.02687.6488.12328.8874.45271.3083.4257.2975 1.3811.2975 1.3811s.1771 2.6324-.4135 2.9593c-.4053.2243-.9614-.2335-2.1553-2.327-.61157-1.0724-1.0735-2.2579-1.0735-2.2579s-.08895-.22144-.24783-.34001c-.19268-.14365-.46193-.18918-.46193-.18918l-2.85777.01894s-.42889.01215-.58651.20148c-.14022.16852-.0112.51667-.0112.51667s2.23718 5.3118 4.77056 7.9886c2.32318 2.4546 4.96068 2.2935 4.96068 2.2935z" fill="#fff"/></g></svg>

<svg width="30" height="30" viewBox="0 0 30 30" fill="none" xmlns="http://www.w3.org/2000/svg">
<path fill-rule="evenodd" clip-rule="evenodd" d="M15 30C23.2843 30 30 23.2843 30 15C30 6.71573 23.2843 0 15 0C6.71573 0 0 6.71573 0 15C0 23.2843 6.71573 30 15 30Z" fill="#096B61"/>
<path fill-rule="evenodd" clip-rule="evenodd" d="M14.7854 20.5304H15.9808C15.9808 20.5304 16.3419 20.49 16.5264 20.2885C16.6961 20.1032 16.6907 19.7556 16.6907 19.7556C16.6907 19.7556 16.6673 18.1278 17.4116 17.8881C18.1457 17.6518 19.0881 19.4613 20.0869 20.1571C20.8422 20.6835 21.4162 20.5683 21.4162 20.5683L24.0871 20.5304C24.0871 20.5304 25.4842 20.4429 24.8217 19.3281C24.7675 19.2371 24.4358 18.5035 22.8358 16.9963C21.1609 15.4189 21.3854 15.6741 23.4028 12.9454C24.6313 11.2837 25.1224 10.2692 24.969 9.83476C24.8228 9.4208 23.9191 9.53015 23.9191 9.53015L20.9118 9.54902C20.9118 9.54902 20.6887 9.51822 20.5235 9.61856C20.3619 9.71669 20.2581 9.94597 20.2581 9.94597C20.2581 9.94597 19.782 11.2318 19.1474 12.3255C17.8083 14.633 17.2728 14.7551 17.0539 14.6116C16.5447 14.2776 16.6719 13.2702 16.6719 12.5543C16.6719 10.318 17.0062 9.38557 16.0211 9.14422C15.6942 9.06417 15.4534 9.01121 14.6174 9.00256C13.5443 8.99148 12.6363 9.00592 12.122 9.26157C11.7799 9.4316 11.5159 9.81039 11.6768 9.83219C11.8756 9.85906 12.3256 9.95547 12.5642 10.2849C12.8725 10.7106 12.8617 11.666 12.8617 11.666C12.8617 11.666 13.0388 14.2984 12.4482 14.6253C12.0429 14.8496 11.4868 14.3918 10.2929 12.2983C9.68133 11.2259 9.2194 10.0404 9.2194 10.0404C9.2194 10.0404 9.13045 9.81896 8.97157 9.70039C8.77889 9.55674 8.50964 9.51121 8.50964 9.51121L5.65187 9.53015C5.65187 9.53015 5.22298 9.5423 5.06536 9.73163C4.92514 9.90015 5.05416 10.2483 5.05416 10.2483C5.05416 10.2483 7.29134 15.5601 9.82472 18.2369C12.1479 20.6915 14.7854 20.5304 14.7854 20.5304Z" fill="white"/>
</svg>
